;FLAVOR:Marlin
;TIME:7494
;Filament used: 23.5451m
;Layer height: 0.3
;Generated with Cura_SteamEngine 3.4.0
M190 S45
M104 S200
M109 S200
M82 ;absolute extrusion mode
G28 ;Home
G1 Z15.0 F6000 ;Move the platform down 15mm
;Prime the extruder
G92 E0
G1 F200 E3
G92 E0
G92 E0
G1 F2400 E-5
;LAYER_COUNT:18
;LAYER:0
M107
M204 S5000
M205 X30 Y30
G0 F1800 X63.555 Y49.64 Z0.2
M204 S500
M205 X20 Y20
;TYPE:SKIRT
G1 F2400 E0
G1 F3000 X64.038 Y49.112 E0.0238
G1 X64.736 Y48.519 E0.05426
G1 X65.434 Y48.008 E0.08304
G1 X66.034 Y47.618 E0.10684
G1 X66.674 Y47.298 E0.13064
G1 X67.506 Y47.004 E0.15998
G1 X67.95 Y46.881 E0.17531
G1 X68.649 Y46.729 E0.1991
G1 X69.658 Y46.649 E0.23277
G1 X230.018 Y46.612 E5.56636
G1 X231.06 Y46.697 E5.60113
G1 X231.618 Y46.789 E5.61994
G1 X232.316 Y46.945 E5.64373
G1 X232.993 Y47.177 E5.66753
G1 X233.639 Y47.484 E5.69132
G1 X234.351 Y47.872 E5.71829
G1 X234.959 Y48.249 E5.74209
G1 X235.522 Y48.691 E5.76589
G1 X236.226 Y49.419 E5.79958
G1 X236.683 Y49.973 E5.82346
G1 X237.107 Y50.55 E5.84728
G1 X237.463 Y51.17 E5.87106
G1 X237.771 Y51.887 E5.89701
G1 X237.962 Y52.42 E5.91584
G1 X238.165 Y53.106 E5.93964
G1 X238.291 Y53.81 E5.96342
G1 X238.33 Y54.282 E5.97918
G1 X238.389 Y55.554 E6.02153
G1 X238.396 Y55.853 E6.03148
G1 X238.36 Y165.338 E9.67296
G1 X238.32 Y166.052 E9.69675
G1 X238.2 Y166.757 E9.72053
G1 X238 Y167.452 E9.74459
G1 X237.779 Y168.083 E9.76682
G1 X237.505 Y168.743 E9.79059
G1 X237.16 Y169.369 E9.81437
G1 X236.53 Y170.211 E9.84934
G1 X235.987 Y170.824 E9.87658
G1 X235.483 Y171.332 E9.90038
G1 X234.926 Y171.78 E9.92416
G1 X234.517 Y172.051 E9.94047
G1 X234.115 Y172.295 E9.95611
G1 X233.484 Y172.631 E9.97989
G1 X232.522 Y172.986 E10.014
G1 X232.069 Y173.113 E10.02964
G1 X231.37 Y173.268 E10.05346
G1 X230.342 Y173.351 E10.08776
G1 X69.982 Y173.388 E15.42136
G1 X68.94 Y173.303 E15.45613
G1 X68.382 Y173.211 E15.47494
G1 X67.684 Y173.055 E15.49873
G1 X67.007 Y172.823 E15.52253
G1 X66.361 Y172.516 E15.54632
G1 X65.649 Y172.128 E15.57329
G1 X65.041 Y171.751 E15.59708
G1 X64.478 Y171.309 E15.62089
G1 X63.786 Y170.595 E15.65396
G1 X63.337 Y170.054 E15.67734
G1 X62.912 Y169.479 E15.70112
G1 X62.553 Y168.86 E15.72492
G1 X62.266 Y168.205 E15.74871
G1 X62.118 Y167.758 E15.76437
G1 X61.879 Y166.938 E15.79278
G1 X61.717 Y166.241 E15.81658
G1 X61.635 Y165.531 E15.84035
G1 X61.623 Y165.147 E15.85313
G1 X61.628 Y54.735 E19.52545
G1 X61.668 Y54.021 E19.54923
G1 X61.848 Y53.073 E19.58133
G1 X61.983 Y52.571 E19.59862
G1 X62.207 Y51.892 E19.6224
G1 X62.505 Y51.242 E19.64618
G1 X62.781 Y50.769 E19.66439
G1 X63.135 Y50.219 E19.68615
G1 X63.555 Y49.64 E19.70994
M204 S5000
M205 X30 Y30
G0 F1800 X63.88 Y49.876
M204 S500
M205 X20 Y20
G1 F3000 X64.349 Y49.367 E19.73296
G1 X64.973 Y48.842 E19.76008
G1 X65.671 Y48.331 E19.78885
G1 X66.252 Y47.955 E19.81187
G1 X66.873 Y47.648 E19.83491
G1 X67.613 Y47.39 E19.86098
G1 X68.057 Y47.267 E19.8763
G1 X68.734 Y47.121 E19.89934
G1 X69.658 Y47.049 E19.93016
G1 X230.018 Y47.012 E25.26376
G1 X230.995 Y47.092 E25.29636
G1 X231.553 Y47.184 E25.31517
G1 X232.229 Y47.336 E25.33822
G1 X232.882 Y47.565 E25.36123
G1 X233.448 Y47.835 E25.38209
G1 X234.16 Y48.223 E25.40906
G1 X234.748 Y48.589 E25.43209
G1 X235.29 Y49.021 E25.45515
G1 X235.917 Y49.674 E25.48526
G1 X236.374 Y50.228 E25.50914
G1 X236.784 Y50.787 E25.5322
G1 X237.126 Y51.389 E25.55523
G1 X237.394 Y52.022 E25.57809
G1 X237.585 Y52.555 E25.59692
G1 X237.781 Y53.219 E25.61995
G1 X237.899 Y53.902 E25.643
G1 X237.931 Y54.301 E25.65632
G1 X237.99 Y55.573 E25.69867
G1 X237.996 Y55.853 E25.70798
G1 X237.96 Y165.338 E29.34947
G1 X237.92 Y166.029 E29.37249
G1 X237.8 Y166.711 E29.39552
G1 X237.623 Y167.319 E29.41658
G1 X237.402 Y167.95 E29.43882
G1 X237.135 Y168.59 E29.46189
G1 X236.797 Y169.194 E29.48491
G1 X236.23 Y169.945 E29.5162
G1 X235.687 Y170.558 E29.54344
G1 X235.199 Y171.049 E29.56647
G1 X234.657 Y171.481 E29.58952
G1 X234.309 Y171.709 E29.60336
G1 X233.907 Y171.953 E29.619
G1 X233.295 Y172.278 E29.64204
G1 X232.414 Y172.601 E29.67325
G1 X231.961 Y172.728 E29.6889
G1 X231.284 Y172.876 E29.71195
G1 X230.342 Y172.951 E29.74338
G1 X69.982 Y172.988 E35.07698
G1 X69.005 Y172.908 E35.10958
G1 X68.447 Y172.816 E35.12839
G1 X67.771 Y172.664 E35.15144
G1 X67.118 Y172.435 E35.17445
G1 X66.552 Y172.165 E35.19531
G1 X65.84 Y171.777 E35.22228
G1 X65.252 Y171.411 E35.24531
G1 X64.71 Y170.979 E35.26837
G1 X64.094 Y170.34 E35.29789
G1 X63.645 Y169.799 E35.32127
G1 X63.234 Y169.241 E35.34432
G1 X62.89 Y168.64 E35.36735
G1 X62.618 Y168.003 E35.39039
G1 X62.502 Y167.646 E35.40288
G1 X62.263 Y166.826 E35.43128
G1 X62.108 Y166.151 E35.45432
G1 X62.023 Y165.147 E35.48783
G1 X62.028 Y54.735 E39.16015
G1 X62.068 Y54.043 E39.1832
G1 X62.234 Y53.177 E39.21253
G1 X62.369 Y52.675 E39.22982
G1 X62.587 Y52.018 E39.25284
G1 X62.879 Y51.39 E39.27588
G1 X63.118 Y50.986 E39.29149
G1 X63.472 Y50.436 E39.31325
G1 X63.88 Y49.876 E39.33629
M204 S5000
M205 X30 Y30
G0 F1800 X64.203 Y50.112
M204 S500
M205 X20 Y20
G1 F3000 X64.66 Y49.623 E39.35855
G1 X65.209 Y49.164 E39.38235
G1 X65.907 Y48.653 E39.41113
G1 X66.469 Y48.291 E39.43336
G1 X67.071 Y47.999 E39.45561
G1 X67.72 Y47.775 E39.47845
G1 X68.164 Y47.652 E39.49377
G1 X68.818 Y47.512 E39.51602
G1 X69.658 Y47.449 E39.54403
G1 X230.018 Y47.412 E44.87763
G1 X230.93 Y47.487 E44.90807
G1 X231.488 Y47.579 E44.92687
G1 X232.14 Y47.727 E44.94911
G1 X232.771 Y47.951 E44.97138
G1 X233.257 Y48.187 E44.98935
G1 X233.969 Y48.575 E45.01632
G1 X234.536 Y48.929 E45.03855
G1 X235.057 Y49.349 E45.06081
G1 X235.609 Y49.928 E45.08742
G1 X236.066 Y50.482 E45.1113
G1 X236.46 Y51.023 E45.13356
G1 X236.787 Y51.607 E45.15583
G1 X237.018 Y52.157 E45.17567
G1 X237.209 Y52.69 E45.1945
G1 X237.396 Y53.332 E45.21674
G1 X237.531 Y54.32 E45.24991
G1 X237.59 Y55.592 E45.29226
G1 X237.596 Y55.853 E45.30094
G1 X237.56 Y165.338 E48.94243
G1 X237.52 Y166.006 E48.96468
G1 X237.4 Y166.664 E48.98693
G1 X237.245 Y167.187 E49.00507
G1 X237.024 Y167.818 E49.02731
G1 X236.766 Y168.435 E49.04955
G1 X236.436 Y169.017 E49.07181
G1 X235.931 Y169.68 E49.09953
G1 X235.388 Y170.293 E49.12676
G1 X234.915 Y170.767 E49.14904
G1 X234.389 Y171.18 E49.17128
G1 X234.102 Y171.367 E49.18267
G1 X233.7 Y171.611 E49.19831
G1 X233.108 Y171.924 E49.22059
G1 X232.306 Y172.216 E49.24897
G1 X231.853 Y172.343 E49.26462
G1 X231.199 Y172.485 E49.28688
G1 X230.342 Y172.551 E49.31547
G1 X69.982 Y172.588 E54.64906
G1 X69.07 Y172.513 E54.6795
G1 X68.512 Y172.421 E54.69831
G1 X67.86 Y172.273 E54.72055
G1 X67.229 Y172.049 E54.74282
G1 X66.743 Y171.813 E54.76079
G1 X66.031 Y171.425 E54.78776
G1 X65.464 Y171.071 E54.80999
G1 X64.943 Y170.651 E54.83225
G1 X64.402 Y170.084 E54.85831
G1 X63.953 Y169.543 E54.88169
G1 X63.557 Y169.004 E54.90394
G1 X63.228 Y168.421 E54.92621
G1 X62.886 Y167.534 E54.95782
G1 X62.647 Y166.714 E54.98623
G1 X62.498 Y166.062 E55.00848
G1 X62.423 Y165.147 E55.03901
G1 X62.428 Y54.735 E58.71133
G1 X62.468 Y54.067 E58.73359
G1 X62.62 Y53.281 E58.76021
G1 X62.755 Y52.779 E58.7775
G1 X62.967 Y52.144 E58.79977
G1 X63.253 Y51.539 E58.82203
G1 X63.454 Y51.202 E58.83508
G1 X63.808 Y50.652 E58.85683
G1 X64.203 Y50.112 E58.87909
M204 S5000
M205 X30 Y30
G0 F1800 X64.526 Y50.349
M204 S500
M205 X20 Y20
G1 F3000 X64.969 Y49.881 E58.90052
G1 X65.445 Y49.487 E58.92107
G1 X66.143 Y48.976 E58.94984
G1 X66.686 Y48.628 E58.97129
G1 X67.268 Y48.35 E58.99275
G1 X67.827 Y48.161 E59.01237
G1 X68.271 Y48.038 E59.0277
G1 X68.901 Y47.904 E59.04912
G1 X69.658 Y47.849 E59.07436
G1 X230.018 Y47.812 E64.40796
G1 X230.865 Y47.881 E64.43622
G1 X231.423 Y47.973 E64.45503
G1 X232.051 Y48.117 E64.47646
G1 X232.657 Y48.338 E64.49792
G1 X233.065 Y48.538 E64.51303
G1 X233.777 Y48.926 E64.54
G1 X234.323 Y49.269 E64.56144
G1 X234.822 Y49.677 E64.58288
G1 X235.3 Y50.183 E64.60603
G1 X235.757 Y50.737 E64.62992
G1 X236.136 Y51.259 E64.65138
G1 X236.447 Y51.823 E64.6728
G1 X236.641 Y52.292 E64.68968
G1 X236.832 Y52.825 E64.70851
G1 X237.012 Y53.444 E64.72995
G1 X237.131 Y54.338 E64.75995
G1 X237.19 Y55.61 E64.8023
G1 X237.196 Y55.853 E64.81038
G1 X237.16 Y165.338 E68.45187
G1 X237.12 Y165.981 E68.4733
G1 X237 Y166.615 E68.49476
G1 X236.868 Y167.055 E68.51004
G1 X236.647 Y167.686 E68.53228
G1 X236.396 Y168.28 E68.55372
G1 X236.074 Y168.838 E68.57515
G1 X235.631 Y169.415 E68.59935
G1 X235.088 Y170.028 E68.62658
G1 X234.632 Y170.483 E68.64801
G1 X233.894 Y171.025 E68.67846
G1 X233.492 Y171.269 E68.6941
G1 X232.921 Y171.569 E68.71556
G1 X232.198 Y171.831 E68.74113
G1 X231.745 Y171.958 E68.75678
G1 X231.114 Y172.093 E68.77824
G1 X230.342 Y172.151 E68.80399
G1 X69.982 Y172.188 E74.13759
G1 X69.135 Y172.119 E74.16585
G1 X68.577 Y172.027 E74.18466
G1 X67.949 Y171.883 E74.20609
G1 X67.343 Y171.662 E74.22755
G1 X66.935 Y171.462 E74.24266
G1 X66.223 Y171.074 E74.26963
G1 X65.677 Y170.731 E74.29108
G1 X65.178 Y170.323 E74.31251
G1 X64.71 Y169.829 E74.33515
G1 X64.261 Y169.288 E74.35853
G1 X63.88 Y168.767 E74.38
G1 X63.568 Y168.204 E74.40141
G1 X63.27 Y167.422 E74.42924
G1 X63.031 Y166.602 E74.45765
G1 X62.889 Y165.973 E74.4791
G1 X62.823 Y165.147 E74.50666
G1 X62.828 Y54.735 E78.17897
G1 X62.868 Y54.091 E78.20043
G1 X63.006 Y53.385 E78.22436
G1 X63.141 Y52.883 E78.24165
G1 X63.347 Y52.272 E78.2631
G1 X63.79 Y51.419 E78.29507
G1 X64.144 Y50.869 E78.31682
G1 X64.526 Y50.349 E78.33828
M204 S5000
M205 X30 Y30
G1 F2400 E73.33828
G0 F1800 X69.516 Y52.378
G0 X69.905 Y53.624
G0 X230.237 Y53.722
G0 X230.255 Y53.624
M204 S500
M205 X20 Y20
;TYPE:WALL-INNER
G1 F2400 E78.33828
G1 F3000 X230.433 Y53.669 E78.34439
G1 X230.588 Y53.73 E78.34993
G1 X230.749 Y53.818 E78.35603
G1 X230.952 Y53.974 E78.36455
G1 X231.083 Y54.114 E78.37092
G1 X231.177 Y54.243 E78.37623
G1 X231.269 Y54.412 E78.38263
G1 X231.33 Y54.566 E78.38814
G1 X231.375 Y54.744 E78.39425
G1 X231.396 Y54.911 E78.39984
G1 X231.4 Y164.979 E82.06072
G1 X231.387 Y165.179 E82.06739
G1 X231.354 Y165.351 E82.07321
G1 X231.302 Y165.512 E82.07884
G1 X231.22 Y165.685 E82.08521
G1 X231.085 Y165.884 E82.09321
G1 X230.96 Y166.017 E82.09928
G1 X230.822 Y166.131 E82.10523
G1 X230.603 Y166.263 E82.11373
G1 X230.44 Y166.327 E82.11956
G1 X230.255 Y166.375 E82.12592
G1 X230.096 Y166.395 E82.13125
G1 X69.912 Y166.397 E87.45899
G1 X69.745 Y166.376 E87.46459
G1 X69.567 Y166.331 E87.47069
G1 X69.412 Y166.27 E87.47623
G1 X69.251 Y166.182 E87.48233
G1 X69.053 Y166.031 E87.49062
G1 X68.916 Y165.884 E87.4973
G1 X68.819 Y165.751 E87.50278
G1 X68.731 Y165.589 E87.50891
G1 X68.67 Y165.434 E87.51445
G1 X68.625 Y165.256 E87.52055
G1 X68.604 Y165.089 E87.52615
G1 X68.6 Y55.021 E91.18703
G1 X68.613 Y54.821 E91.19369
G1 X68.646 Y54.649 E91.19952
G1 X68.698 Y54.488 E91.20515
G1 X68.778 Y54.319 E91.21137
G1 X68.869 Y54.177 E91.21698
G1 X68.982 Y54.04 E91.22288
G1 X69.108 Y53.923 E91.2286
G1 X69.248 Y53.82 E91.23438
G1 X69.399 Y53.736 E91.24013
G1 X69.561 Y53.673 E91.24591
G1 X69.745 Y53.625 E91.25223
G1 X69.904 Y53.605 E91.25756
G1 X230.088 Y53.603 E96.58531
G1 X230.255 Y53.624 E96.5909
M204 S5000
M205 X30 Y30
G0 F1800 X230.33 Y53.23
M204 S500
M205 X20 Y20
;TYPE:WALL-OUTER
G1 F3000 X230.555 Y53.287 E96.59862
G1 X230.758 Y53.367 E96.60588
G1 X230.965 Y53.48 E96.61373
G1 X231.148 Y53.613 E96.62125
G1 X231.228 Y53.684 E96.62481
G1 X231.39 Y53.857 E96.63269
G1 X231.518 Y54.033 E96.63993
G1 X231.632 Y54.241 E96.64782
G1 X231.712 Y54.444 E96.65507
G1 X231.769 Y54.669 E96.66279
G1 X231.796 Y54.886 E96.67007
G1 X231.8 Y164.99 E100.33214
G1 X231.784 Y165.234 E100.34027
G1 X231.742 Y165.451 E100.34763
G1 X231.675 Y165.659 E100.35489
G1 X231.573 Y165.875 E100.36284
G1 X231.458 Y166.055 E100.36994
G1 X231.387 Y166.147 E100.37381
G1 X231.235 Y166.309 E100.3812
G1 X231.059 Y166.454 E100.38878
G1 X230.866 Y166.577 E100.39639
G1 X230.772 Y166.626 E100.39992
G1 X230.564 Y166.708 E100.40736
G1 X230.33 Y166.769 E100.4154
G1 X230.121 Y166.795 E100.4224
G1 X69.887 Y166.797 E105.75181
G1 X69.67 Y166.77 E105.75908
G1 X69.445 Y166.713 E105.7668
G1 X69.242 Y166.633 E105.77406
G1 X69.035 Y166.52 E105.7819
G1 X68.852 Y166.387 E105.78943
G1 X68.772 Y166.316 E105.79298
G1 X68.607 Y166.14 E105.80101
G1 X68.481 Y165.966 E105.80815
G1 X68.368 Y165.759 E105.816
G1 X68.288 Y165.556 E105.82325
G1 X68.231 Y165.331 E105.83097
G1 X68.204 Y165.114 E105.83825
G1 X68.2 Y55.01 E109.50032
G1 X68.216 Y54.766 E109.50845
G1 X68.258 Y54.549 E109.51581
G1 X68.325 Y54.341 E109.52307
G1 X68.427 Y54.125 E109.53102
G1 X68.543 Y53.944 E109.53817
G1 X68.69 Y53.766 E109.54585
G1 X68.854 Y53.613 E109.55331
G1 X69.03 Y53.484 E109.56056
G1 X69.231 Y53.372 E109.56822
G1 X69.436 Y53.292 E109.57554
G1 X69.67 Y53.231 E109.58358
G1 X69.879 Y53.205 E109.59058
G1 X230.113 Y53.203 E114.91999
G1 X230.33 Y53.23 E114.92726
M204 S5000
M205 X30 Y30
G0 F1800 X230.523 Y53.279
G0 X230.311 Y54.04
M204 S500
M205 X20 Y20
;TYPE:SKIN
G1 F3000 X230.425 Y54.085 E114.93134
G1 X230.528 Y54.141 E114.93524
G1 X230.69 Y54.266 E114.94204
G1 X230.784 Y54.367 E114.94663
G1 X230.844 Y54.448 E114.94999
G1 X230.915 Y54.579 E114.95494
G1 X230.959 Y54.69 E114.95891
G1 X230.991 Y54.816 E114.96324
G1 X231.006 Y54.936 E114.96726
G1 X231.01 Y164.953 E118.62644
G1 X230.998 Y165.137 E118.63257
G1 X230.975 Y165.256 E118.6366
G1 X230.941 Y165.361 E118.64027
G1 X230.877 Y165.496 E118.64524
G1 X230.783 Y165.636 E118.65085
G1 X230.688 Y165.737 E118.65546
G1 X230.599 Y165.81 E118.65929
G1 X230.43 Y165.912 E118.66586
G1 X230.323 Y165.954 E118.66968
G1 X230.172 Y165.993 E118.67487
G1 X230.078 Y166.005 E118.67802
G1 X69.937 Y166.007 E124.00433
G1 X69.814 Y165.992 E124.00845
G1 X69.689 Y165.96 E124.01274
G1 X69.575 Y165.915 E124.01682
G1 X69.466 Y165.856 E124.02094
G1 X69.314 Y165.739 E124.02732
G1 X69.223 Y165.641 E124.03177
G1 X69.147 Y165.538 E124.03603
G1 X69.085 Y165.423 E124.04037
G1 X69.041 Y165.312 E124.04434
G1 X69.009 Y165.187 E124.04864
G1 X68.994 Y165.064 E124.05276
G1 X68.99 Y55.047 E127.71194
G1 X69.002 Y54.863 E127.71807
G1 X69.024 Y54.746 E127.72203
G1 X69.061 Y54.635 E127.72592
G1 X69.124 Y54.501 E127.73085
G1 X69.182 Y54.41 E127.73444
G1 X69.267 Y54.307 E127.73888
G1 X69.353 Y54.227 E127.74278
G1 X69.463 Y54.146 E127.74733
G1 X69.57 Y54.087 E127.75139
G1 X69.669 Y54.049 E127.75492
G1 X69.83 Y54.007 E127.76045
G1 X69.922 Y53.995 E127.76354
G1 X230.063 Y53.993 E133.08985
G1 X230.186 Y54.008 E133.09397
G1 X230.311 Y54.04 E133.09826
M204 S5000
M205 X30 Y30
G0 F1800 X175.008 Y110.005
M204 S500
M205 X20 Y20
G1 F3000 X124.992 Y110.007 E134.7618
G1 X124.992 Y109.995 E134.7622
G1 X175.008 Y109.993 E136.42574
G1 X175.008 Y110.005 E136.42614
M204 S5000
M205 X30 Y30
G0 F1800 X175.409 Y110.405
M204 S500
M205 X20 Y20
G1 F3000 X124.593 Y110.407 E138.11629
G1 X124.591 Y109.595 E138.14329
G1 X175.407 Y109.593 E139.83344
G1 X175.409 Y110.405 E139.86045
M204 S5000
M205 X30 Y30
G0 F1800 X175.809 Y110.805
M204 S500
M205 X20 Y20
G1 F3000 X124.193 Y110.807 E141.5772
G1 X124.191 Y109.195 E141.63082
G1 X175.807 Y109.193 E143.34757
G1 X175.809 Y110.805 E143.40119
M204 S5000
M205 X30 Y30
G0 F1800 X176.21 Y111.205
M204 S500
M205 X20 Y20
G1 F3000 X123.794 Y111.207 E145.14455
G1 X123.79 Y108.795 E145.22478
G1 X176.206 Y108.793 E146.96814
G1 X176.21 Y111.205 E147.04836
M204 S5000
M205 X30 Y30
G0 F1800 X176.61 Y111.605
M204 S500
M205 X20 Y20
G1 F3000 X123.394 Y111.607 E148.81833
G1 X123.39 Y108.395 E148.92517
G1 X176.606 Y108.393 E150.69514
G1 X176.61 Y111.605 E150.80197
M204 S5000
M205 X30 Y30
G0 F1800 X177.01 Y112.005
M204 S500
M205 X20 Y20
G1 F3000 X122.994 Y112.007 E152.59855
G1 X122.99 Y107.995 E152.73199
G1 X177.006 Y107.993 E154.52857
G1 X177.01 Y112.005 E154.66201
M204 S5000
M205 X30 Y30
G0 F1800 X177.41 Y112.405
M204 S500
M205 X20 Y20
G1 F3000 X122.594 Y112.407 E156.48519
G1 X122.59 Y107.595 E156.64524
G1 X177.406 Y107.593 E158.46843
G1 X177.41 Y112.405 E158.62848
M204 S5000
M205 X30 Y30
G0 F1800 X177.81 Y112.805
M204 S500
M205 X20 Y20
G1 F3000 X122.194 Y112.807 E160.47827
G1 X122.19 Y107.195 E160.66493
G1 X177.806 Y107.193 E162.51472
G1 X177.81 Y112.805 E162.70138
M204 S5000
M205 X30 Y30
G0 F1800 X178.21 Y113.205
M204 S500
M205 X20 Y20
G1 F3000 X121.794 Y113.207 E164.57778
G1 X121.79 Y106.795 E164.79105
