;FLAVOR:Marlin
;TIME:6047
;Filament used: 18.4583m
;Layer height: 0.3
;Generated with Cura_SteamEngine 3.4.0
M190 S45
M104 S200
M109 S200
M82 ;absolute extrusion mode
G28 ;Home
G1 Z15.0 F6000 ;Move the platform down 15mm
;Prime the extruder
G92 E0
G1 F200 E3
G92 E0
G92 E0
G1 F2400 E-5
;LAYER_COUNT:18
;LAYER:0
M107
M204 S5000
M205 X30 Y30
G0 F1800 X52.029 Y66.748 Z0.2
M204 S500
M205 X20 Y20
;TYPE:SKIRT
G1 F2400 E0
G1 F3000 X52.62 Y66.345 E0.02379
G1 X53.228 Y66.021 E0.04671
G1 X53.663 Y65.819 E0.06266
G1 X54.328 Y65.555 E0.08646
G1 X55.084 Y65.352 E0.11249
G1 X55.581 Y65.251 E0.12936
G1 X56.289 Y65.148 E0.15315
G1 X56.856 Y65.123 E0.17203
G1 X243.266 Y65.128 E6.37205
G1 X243.98 Y65.168 E6.39584
G1 X244.686 Y65.287 E6.41965
G1 X245.285 Y65.455 E6.44034
G1 X245.986 Y65.688 E6.46491
G1 X246.651 Y65.951 E6.4887
G1 X247.282 Y66.287 E6.51247
G1 X247.872 Y66.691 E6.53626
G1 X248.211 Y66.97 E6.55086
G1 X248.824 Y67.513 E6.5781
G1 X249.332 Y68.017 E6.6019
G1 X249.78 Y68.574 E6.62567
G1 X250.051 Y68.983 E6.64199
G1 X250.295 Y69.385 E6.65763
G1 X250.631 Y70.016 E6.68141
G1 X250.986 Y70.978 E6.71551
G1 X251.113 Y71.431 E6.73116
G1 X251.268 Y72.13 E6.75498
G1 X251.351 Y73.156 E6.78921
G1 X251.388 Y146.51 E9.22898
G1 X251.305 Y147.543 E9.26345
G1 X251.213 Y148.107 E9.28245
G1 X251.058 Y148.806 E9.30627
G1 X250.827 Y149.483 E9.33006
G1 X250.58 Y150.019 E9.34969
G1 X250.229 Y150.697 E9.37508
G1 X249.865 Y151.313 E9.39888
G1 X249.434 Y151.885 E9.4227
G1 X248.806 Y152.53 E9.45264
G1 X248.332 Y152.953 E9.47377
G1 X247.773 Y153.399 E9.49756
G1 X247.167 Y153.779 E9.52135
G1 X246.44 Y154.123 E9.5481
G1 X245.79 Y154.382 E9.57137
G1 X245.112 Y154.61 E9.59516
G1 X244.412 Y154.76 E9.61897
G1 X243.718 Y154.83 E9.64217
G1 X242.446 Y154.889 E9.68452
G1 X242.148 Y154.896 E9.69444
G1 X56.663 Y154.86 E15.86369
G1 X55.949 Y154.82 E15.88748
G1 X55.243 Y154.7 E15.9113
G1 X54.852 Y154.598 E15.92474
G1 X54.398 Y154.464 E15.94048
G1 X53.725 Y154.224 E15.96425
G1 X52.925 Y153.819 E15.99407
G1 X52.517 Y153.575 E16.00988
G1 X51.925 Y153.174 E16.03366
G1 X51.248 Y152.578 E16.06366
G1 X50.86 Y152.185 E16.08203
G1 X50.386 Y151.649 E16.10583
G1 X49.976 Y151.063 E16.12962
G1 X49.704 Y150.58 E16.14805
G1 X49.384 Y149.948 E16.17161
G1 X49.097 Y149.293 E16.1954
G1 X48.885 Y148.61 E16.21918
G1 X48.742 Y147.84 E16.24523
G1 X48.654 Y147.126 E16.26916
G1 X48.606 Y146.34 E16.29535
G1 X48.644 Y73.175 E18.72883
G1 X48.684 Y72.461 E18.75261
G1 X48.804 Y71.755 E18.77643
G1 X49.096 Y70.815 E18.80917
G1 X49.421 Y69.997 E18.83845
G1 X49.722 Y69.348 E18.86224
G1 X50.093 Y68.737 E18.88602
G1 X50.531 Y68.171 E18.90982
G1 X50.932 Y67.748 E18.92921
G1 X51.487 Y67.214 E18.95482
G1 X52.029 Y66.748 E18.9786
M204 S5000
M205 X30 Y30
G0 F1800 X52.29 Y67.052
M204 S500
M205 X20 Y20
G1 F3000 X52.864 Y66.665 E19.00162
G1 X53.397 Y66.384 E19.02166
G1 X53.832 Y66.182 E19.03761
G1 X54.476 Y65.927 E19.06065
G1 X55.164 Y65.744 E19.08433
G1 X55.661 Y65.643 E19.1012
G1 X56.347 Y65.545 E19.12425
G1 X56.856 Y65.523 E19.14119
G1 X243.266 Y65.528 E25.34121
G1 X243.958 Y65.568 E25.36427
G1 X244.64 Y65.687 E25.38729
G1 X245.158 Y65.834 E25.4052
G1 X245.859 Y66.067 E25.42977
G1 X246.503 Y66.323 E25.45282
G1 X247.113 Y66.652 E25.47587
G1 X247.945 Y67.27 E25.51034
G1 X248.558 Y67.813 E25.53758
G1 X249.049 Y68.301 E25.56061
G1 X249.481 Y68.843 E25.58366
G1 X249.709 Y69.191 E25.5975
G1 X249.953 Y69.593 E25.61314
G1 X250.278 Y70.205 E25.63618
G1 X250.601 Y71.086 E25.66739
G1 X250.728 Y71.539 E25.68304
G1 X250.876 Y72.216 E25.70609
G1 X250.951 Y73.156 E25.73745
G1 X250.988 Y146.51 E28.17722
G1 X250.91 Y147.479 E28.20955
G1 X250.818 Y148.043 E28.22856
G1 X250.667 Y148.719 E28.2516
G1 X250.439 Y149.373 E28.27463
G1 X250.224 Y149.835 E28.29158
G1 X249.873 Y150.513 E28.31697
G1 X249.52 Y151.109 E28.34001
G1 X249.1 Y151.66 E28.36306
G1 X248.54 Y152.232 E28.38968
G1 X248.066 Y152.655 E28.41081
G1 X247.524 Y153.085 E28.43382
G1 X246.935 Y153.45 E28.45687
G1 X246.292 Y153.752 E28.4805
G1 X245.642 Y154.011 E28.50377
G1 X244.985 Y154.23 E28.5268
G1 X244.307 Y154.371 E28.54984
G1 X243.699 Y154.431 E28.57016
G1 X242.427 Y154.49 E28.61251
G1 X242.148 Y154.496 E28.62179
G1 X56.663 Y154.46 E34.79105
G1 X55.971 Y154.42 E34.8141
G1 X54.966 Y154.215 E34.84822
G1 X54.512 Y154.081 E34.86396
G1 X53.86 Y153.847 E34.887
G1 X53.13 Y153.475 E34.91425
G1 X52.722 Y153.231 E34.93006
G1 X52.15 Y152.842 E34.95307
G1 X51.532 Y152.297 E34.98048
G1 X51.144 Y151.904 E34.99884
G1 X50.687 Y151.384 E35.02187
G1 X50.293 Y150.815 E35.04489
G1 X50.061 Y150.399 E35.06073
G1 X49.741 Y149.767 E35.08429
G1 X49.464 Y149.132 E35.10733
G1 X49.263 Y148.47 E35.13035
G1 X49.139 Y147.791 E35.1533
G1 X49.051 Y147.077 E35.17723
G1 X49.006 Y146.34 E35.20179
G1 X49.044 Y73.175 E37.63527
G1 X49.084 Y72.484 E37.65829
G1 X49.204 Y71.801 E37.68135
G1 X49.468 Y70.963 E37.71057
G1 X49.793 Y70.145 E37.73985
G1 X50.085 Y69.517 E37.76288
G1 X50.448 Y68.927 E37.78593
G1 X50.877 Y68.383 E37.80897
G1 X51.209 Y68.036 E37.82494
G1 X51.764 Y67.502 E37.85056
G1 X52.29 Y67.052 E37.87358
M204 S5000
M205 X30 Y30
G0 F1800 X52.55 Y67.356
M204 S500
M205 X20 Y20
G1 F3000 X53.107 Y66.986 E37.89582
G1 X53.565 Y66.747 E37.913
G1 X54 Y66.545 E37.92896
G1 X54.623 Y66.3 E37.95122
G1 X55.244 Y66.136 E37.97258
G1 X55.741 Y66.035 E37.98945
G1 X56.403 Y65.941 E38.01169
G1 X56.856 Y65.923 E38.02677
G1 X243.266 Y65.928 E44.22679
G1 X243.934 Y65.968 E44.24905
G1 X244.592 Y66.087 E44.27129
G1 X245.032 Y66.214 E44.28652
G1 X245.733 Y66.447 E44.31109
G1 X246.354 Y66.695 E44.33333
G1 X246.942 Y67.016 E44.35561
G1 X247.68 Y67.569 E44.38629
G1 X248.293 Y68.112 E44.41352
G1 X248.767 Y68.585 E44.4358
G1 X249.18 Y69.111 E44.45804
G1 X249.367 Y69.398 E44.46943
G1 X249.611 Y69.8 E44.48507
G1 X249.924 Y70.392 E44.50734
G1 X250.216 Y71.194 E44.53573
G1 X250.343 Y71.647 E44.55138
G1 X250.485 Y72.301 E44.57364
G1 X250.551 Y73.156 E44.60216
G1 X250.588 Y146.51 E47.04193
G1 X250.515 Y147.415 E47.07212
G1 X250.423 Y147.979 E47.09113
G1 X250.276 Y148.631 E47.11336
G1 X250.052 Y149.262 E47.13563
G1 X249.869 Y149.652 E47.14996
G1 X249.518 Y150.33 E47.17535
G1 X249.176 Y150.904 E47.19758
G1 X248.767 Y151.434 E47.21984
G1 X248.274 Y151.933 E47.24317
G1 X247.8 Y152.356 E47.2643
G1 X247.275 Y152.771 E47.28656
G1 X246.704 Y153.12 E47.30882
G1 X246.144 Y153.38 E47.32935
G1 X245.494 Y153.639 E47.35263
G1 X244.859 Y153.849 E47.37487
G1 X244.203 Y153.982 E47.39713
G1 X243.68 Y154.031 E47.41461
G1 X242.408 Y154.09 E47.45696
G1 X242.148 Y154.096 E47.46561
G1 X56.663 Y154.06 E53.63486
G1 X55.995 Y154.02 E53.65712
G1 X55.079 Y153.831 E53.68823
G1 X54.625 Y153.697 E53.70397
G1 X53.996 Y153.47 E53.72621
G1 X53.336 Y153.132 E53.75088
G1 X52.928 Y152.888 E53.76669
G1 X52.375 Y152.511 E53.78895
G1 X51.817 Y152.016 E53.81376
G1 X51.429 Y151.623 E53.83213
G1 X50.988 Y151.12 E53.85438
G1 X50.611 Y150.568 E53.87661
G1 X50.418 Y150.219 E53.88987
G1 X50.098 Y149.587 E53.91344
G1 X49.832 Y148.973 E53.93569
G1 X49.641 Y148.332 E53.95794
G1 X49.536 Y147.742 E53.97787
G1 X49.448 Y147.028 E54.0018
G1 X49.406 Y146.34 E54.02472
G1 X49.444 Y73.175 E56.4582
G1 X49.484 Y72.507 E56.48046
G1 X49.604 Y71.849 E56.5027
G1 X49.84 Y71.11 E56.52851
G1 X50.165 Y70.292 E56.55778
G1 X50.448 Y69.686 E56.58003
G1 X50.802 Y69.119 E56.60226
G1 X51.222 Y68.597 E56.62454
G1 X51.486 Y68.325 E56.63715
G1 X52.041 Y67.791 E56.66277
G1 X52.55 Y67.356 E56.68504
M204 S5000
M205 X30 Y30
G0 F1800 X52.81 Y67.662
M204 S500
M205 X20 Y20
G1 F3000 X53.349 Y67.308 E56.70648
G1 X53.734 Y67.11 E56.72088
G1 X54.169 Y66.908 E56.73684
G1 X54.769 Y66.673 E56.75827
G1 X55.323 Y66.528 E56.77731
G1 X55.82 Y66.427 E56.79418
G1 X56.459 Y66.338 E56.81564
G1 X56.856 Y66.323 E56.82885
G1 X243.266 Y66.328 E63.02888
G1 X243.91 Y66.368 E63.05034
G1 X244.543 Y66.487 E63.07176
G1 X244.906 Y66.593 E63.08434
G1 X245.607 Y66.826 E63.10891
G1 X246.205 Y67.067 E63.13035
G1 X246.769 Y67.38 E63.1518
G1 X247.415 Y67.869 E63.17875
G1 X248.028 Y68.412 E63.20599
G1 X248.483 Y68.868 E63.22741
G1 X249.025 Y69.606 E63.25787
G1 X249.269 Y70.008 E63.27351
G1 X249.569 Y70.579 E63.29496
G1 X249.831 Y71.302 E63.32054
G1 X249.958 Y71.755 E63.33619
G1 X250.093 Y72.386 E63.35765
G1 X250.151 Y73.156 E63.38333
G1 X250.188 Y146.51 E65.8231
G1 X250.12 Y147.35 E65.85113
G1 X250.028 Y147.914 E65.87013
G1 X249.885 Y148.543 E65.89159
G1 X249.665 Y149.149 E65.91303
G1 X249.514 Y149.468 E65.92477
G1 X249.163 Y150.146 E65.95016
G1 X248.832 Y150.699 E65.9716
G1 X248.434 Y151.206 E65.99304
G1 X248.007 Y151.635 E66.01317
G1 X247.533 Y152.058 E66.0343
G1 X247.027 Y152.456 E66.05571
G1 X246.475 Y152.789 E66.07715
G1 X245.996 Y153.009 E66.09468
G1 X245.346 Y153.268 E66.11796
G1 X244.733 Y153.469 E66.13941
G1 X244.101 Y153.592 E66.16083
G1 X243.662 Y153.631 E66.17549
G1 X242.39 Y153.69 E66.21784
G1 X242.148 Y153.696 E66.22589
G1 X56.663 Y153.66 E72.39515
G1 X56.02 Y153.62 E72.41657
G1 X55.192 Y153.447 E72.44471
G1 X54.738 Y153.313 E72.46045
G1 X54.132 Y153.093 E72.48189
G1 X53.541 Y152.789 E72.504
G1 X53.133 Y152.545 E72.51981
G1 X52.601 Y152.18 E72.54127
G1 X52.102 Y151.735 E72.56351
G1 X51.714 Y151.342 E72.58188
G1 X51.29 Y150.856 E72.60333
G1 X50.93 Y150.322 E72.62475
G1 X50.775 Y150.038 E72.63551
G1 X50.455 Y149.406 E72.65907
G1 X50.2 Y148.814 E72.68051
G1 X50.02 Y148.195 E72.70195
G1 X49.933 Y147.693 E72.71889
G1 X49.845 Y146.979 E72.74282
G1 X49.806 Y146.34 E72.76412
G1 X49.844 Y73.175 E75.19759
G1 X49.884 Y72.532 E75.21902
G1 X50.004 Y71.898 E75.24048
G1 X50.211 Y71.258 E75.26285
G1 X50.536 Y70.44 E75.29213
G1 X50.811 Y69.857 E75.31357
G1 X51.156 Y69.312 E75.33502
G1 X51.764 Y68.613 E75.36584
G1 X52.319 Y68.079 E75.39145
G1 X52.81 Y67.662 E75.41288
M204 S5000
M205 X30 Y30
G1 F2400 E70.41288
G0 F1800 X56.501 Y70.882
G0 X56.912 Y72.123
G0 X243.167 Y72.212
G0 X243.179 Y72.113
M204 S500
M205 X20 Y20
;TYPE:WALL-INNER
G1 F2400 E75.41288
G1 F3000 X243.351 Y72.146 E75.4187
G1 X243.512 Y72.198 E75.42433
G1 X243.685 Y72.28 E75.4307
G1 X243.826 Y72.37 E75.43626
G1 X244.019 Y72.542 E75.44486
G1 X244.131 Y72.678 E75.45072
G1 X244.262 Y72.895 E75.45915
G1 X244.328 Y73.061 E75.46509
G1 X244.375 Y73.243 E75.47134
G1 X244.395 Y73.404 E75.47674
G1 X244.397 Y146.584 E77.91072
G1 X244.376 Y146.755 E77.91645
G1 X244.331 Y146.933 E77.92255
G1 X244.27 Y147.088 E77.92809
G1 X244.181 Y147.251 E77.93427
G1 X244.081 Y147.388 E77.93991
G1 X243.953 Y147.525 E77.94615
G1 X243.898 Y147.573 E77.94858
G1 X243.75 Y147.681 E77.95467
G1 X243.589 Y147.769 E77.96077
G1 X243.434 Y147.83 E77.96631
G1 X243.256 Y147.875 E77.97242
G1 X243.089 Y147.896 E77.97802
G1 X57.021 Y147.9 E84.16666
G1 X56.821 Y147.887 E84.17333
G1 X56.649 Y147.854 E84.17916
G1 X56.488 Y147.802 E84.18478
G1 X56.319 Y147.722 E84.191
G1 X56.175 Y147.63 E84.19668
G1 X56.111 Y147.58 E84.19939
G1 X55.98 Y147.457 E84.20536
G1 X55.87 Y147.324 E84.2111
G1 X55.779 Y147.182 E84.21671
G1 X55.699 Y147.013 E84.22293
G1 X55.645 Y146.844 E84.22883
G1 X55.611 Y146.674 E84.2346
G1 X55.605 Y146.606 E84.23687
G1 X55.603 Y73.412 E86.67131
G1 X55.624 Y73.245 E86.67691
G1 X55.669 Y73.067 E86.68302
G1 X55.73 Y72.912 E86.68856
G1 X55.819 Y72.749 E86.69473
G1 X55.919 Y72.612 E86.70037
G1 X56.047 Y72.475 E86.70661
G1 X56.102 Y72.427 E86.70904
G1 X56.25 Y72.319 E86.71513
G1 X56.411 Y72.231 E86.72124
G1 X56.566 Y72.17 E86.72678
G1 X56.744 Y72.125 E86.73288
G1 X56.911 Y72.104 E86.73848
G1 X242.979 Y72.1 E92.92713
G1 X243.179 Y72.113 E92.93379
M204 S5000
M205 X30 Y30
G0 F1800 X243.234 Y71.716
M204 S500
M205 X20 Y20
;TYPE:WALL-OUTER
G1 F3000 X243.451 Y71.758 E92.94114
G1 X243.659 Y71.825 E92.94841
G1 X243.875 Y71.927 E92.95636
G1 X244.058 Y72.044 E92.96358
G1 X244.147 Y72.113 E92.96733
G1 X244.309 Y72.265 E92.97472
G1 X244.454 Y72.441 E92.9823
G1 X244.577 Y72.634 E92.98991
G1 X244.625 Y72.725 E92.99333
G1 X244.708 Y72.935 E93.00084
G1 X244.769 Y73.171 E93.00895
G1 X244.795 Y73.378 E93.01589
G1 X244.797 Y146.611 E95.45163
G1 X244.77 Y146.83 E95.45897
G1 X244.713 Y147.055 E95.46669
G1 X244.633 Y147.258 E95.47395
G1 X244.52 Y147.465 E95.48179
G1 X244.391 Y147.642 E95.48908
G1 X244.229 Y147.815 E95.49696
G1 X244.149 Y147.886 E95.50052
G1 X243.966 Y148.019 E95.50804
G1 X243.759 Y148.132 E95.51588
G1 X243.556 Y148.212 E95.52314
G1 X243.331 Y148.269 E95.53086
G1 X243.114 Y148.296 E95.53813
G1 X57.01 Y148.3 E101.72798
G1 X56.766 Y148.284 E101.73611
G1 X56.549 Y148.242 E101.74346
G1 X56.341 Y148.175 E101.75073
G1 X56.125 Y148.073 E101.75868
G1 X55.941 Y147.955 E101.76595
G1 X55.853 Y147.887 E101.76964
G1 X55.691 Y147.735 E101.77703
G1 X55.544 Y147.557 E101.78471
G1 X55.428 Y147.376 E101.79186
G1 X55.326 Y147.16 E101.79981
G1 X55.259 Y146.952 E101.80707
G1 X55.215 Y146.729 E101.81463
G1 X55.205 Y146.621 E101.81824
G1 X55.203 Y73.387 E104.25402
G1 X55.23 Y73.17 E104.26129
G1 X55.287 Y72.945 E104.26901
G1 X55.367 Y72.742 E104.27627
G1 X55.48 Y72.535 E104.28411
G1 X55.609 Y72.358 E104.29139
G1 X55.771 Y72.185 E104.29928
G1 X55.851 Y72.114 E104.30283
G1 X56.034 Y71.981 E104.31036
G1 X56.241 Y71.868 E104.3182
G1 X56.444 Y71.788 E104.32546
G1 X56.669 Y71.731 E104.33318
G1 X56.886 Y71.704 E104.34045
G1 X242.99 Y71.7 E110.5303
G1 X243.234 Y71.716 E110.53843
M204 S5000
M205 X30 Y30
G0 F1800 X243.43 Y71.754
G0 X243.256 Y72.525
M204 S500
M205 X20 Y20
;TYPE:SKIN
G1 F3000 X243.362 Y72.559 E110.54213
G1 X243.498 Y72.623 E110.54713
G1 X243.594 Y72.684 E110.55091
G1 X243.735 Y72.811 E110.55723
G1 X243.813 Y72.905 E110.56129
G1 X243.91 Y73.065 E110.56751
G1 X243.957 Y73.184 E110.57177
G1 X243.993 Y73.325 E110.57661
G1 X244.005 Y73.42 E110.57979
G1 X244.007 Y146.553 E113.01221
G1 X243.99 Y146.692 E113.01686
G1 X243.96 Y146.811 E113.02095
G1 X243.918 Y146.918 E113.02477
G1 X243.85 Y147.041 E113.02944
G1 X243.779 Y147.139 E113.03347
G1 X243.649 Y147.272 E113.03965
G1 X243.542 Y147.35 E113.04406
G1 X243.422 Y147.415 E113.0486
G1 X243.312 Y147.459 E113.05254
G1 X243.187 Y147.491 E113.05683
G1 X243.064 Y147.506 E113.06095
G1 X57.047 Y147.51 E119.2479
G1 X56.863 Y147.498 E119.25403
G1 X56.744 Y147.475 E119.25806
G1 X56.638 Y147.441 E119.26177
G1 X56.51 Y147.381 E119.26647
G1 X56.364 Y147.282 E119.27234
G1 X56.262 Y147.186 E119.277
G1 X56.181 Y147.088 E119.28122
G1 X56.124 Y146.998 E119.28477
G1 X56.062 Y146.868 E119.28956
G1 X56.022 Y146.741 E119.29399
G1 X55.995 Y146.599 E119.29879
G1 X55.993 Y73.436 E121.7322
G1 X56.008 Y73.314 E121.73629
G1 X56.04 Y73.189 E121.74058
G1 X56.084 Y73.078 E121.74456
G1 X56.15 Y72.959 E121.74908
G1 X56.221 Y72.861 E121.75311
G1 X56.353 Y72.727 E121.75936
G1 X56.458 Y72.65 E121.76369
G1 X56.578 Y72.585 E121.76823
G1 X56.688 Y72.541 E121.77217
G1 X56.813 Y72.509 E121.77647
G1 X56.936 Y72.494 E121.78059
G1 X242.953 Y72.49 E127.96754
G1 X243.137 Y72.502 E127.97367
G1 X243.256 Y72.525 E127.9777
M204 S5000
M205 X30 Y30
G0 F1800 X206.806 Y110.306
M204 S500
M205 X20 Y20
G1 F3000 X93.194 Y110.31 E131.75645
G1 X93.194 Y109.694 E131.77694
G1 X206.806 Y109.69 E135.55569
G1 X206.806 Y110.306 E135.57618
M204 S5000
M205 X30 Y30
G0 F1800 X207.207 Y110.706
M204 S500
M205 X20 Y20
G1 F3000 X92.795 Y110.71 E139.38154
G1 X92.793 Y109.294 E139.42863
G1 X207.205 Y109.29 E143.23399
G1 X207.207 Y110.706 E143.28109
M204 S5000
M205 X30 Y30
G0 F1800 X207.607 Y111.106
M204 S500
M205 X20 Y20
G1 F3000 X92.395 Y111.11 E147.11306
G1 X92.393 Y108.894 E147.18676
G1 X207.605 Y108.89 E151.01873
G1 X207.607 Y111.106 E151.09243
M204 S5000
M205 X30 Y30
G0 F1800 X208.007 Y111.506
M204 S500
M205 X20 Y20
G1 F3000 X91.995 Y111.51 E154.95101
G1 X91.993 Y108.494 E155.05132
G1 X208.005 Y108.49 E158.90989
G1 X208.007 Y111.506 E159.01021
M204 S5000
M205 X30 Y30
G0 F1800 X208.407 Y111.906
M204 S500
M205 X20 Y20
G1 F3000 X91.595 Y111.91 E162.89539
G1 X91.593 Y108.094 E163.02231
G1 X208.405 Y108.09 E166.90749
G1 X208.407 Y111.906 E167.03441
M204 S5000
M205 X30 Y30
G0 F1800 X208.807 Y112.306
M204 S500
M205 X20 Y20
G1 F3000 X91.195 Y112.31 E170.9462
G1 X91.193 Y107.694 E171.09973
G1 X208.805 Y107.69 E175.01152
G1 X208.807 Y112.306 E175.16505
M204 S5000
M205 X30 Y30
G0 F1800 X209.207 Y112.706
M204 S500
M205 X20 Y20
G1 F3000 X90.795 Y112.71 E179.10345
