;FLAVOR:Marlin
;TIME:9115
;Filament used: 23.5452m
;Layer height: 0.3
;Generated with Cura_SteamEngine 3.4.0
M190 S45
M104 S200
M109 S200
M82 ;absolute extrusion mode
G28 ;Home
G1 Z15.0 F6000 ;Move the platform down 15mm
;Prime the extruder
G92 E0
G1 F200 E3
G92 E0
G92 E0
G1 F2400 E-5
;LAYER_COUNT:18
;LAYER:0
M107
M204 S5000
M205 X30 Y30
G0 F1800 X63.39 Y49.859 Z0.2
M204 S500
M205 X20 Y20
;TYPE:SKIRT
G1 F2400 E0
G1 X63.682 Y49.506 E0.01524
G1 X64.168 Y48.981 E0.03903
G1 X64.709 Y48.514 E0.0628
G1 X65.147 Y48.205 E0.08063
G1 X65.844 Y47.756 E0.10821
G1 X66.466 Y47.403 E0.13199
G1 X67.124 Y47.121 E0.1558
G1 X68.074 Y46.856 E0.18861
G1 X68.638 Y46.745 E0.20773
G1 X69.347 Y46.647 E0.23153
G1 X69.875 Y46.625 E0.24911
G1 X230.316 Y46.642 E5.5854
G1 X231.03 Y46.682 E5.60918
G1 X231.735 Y46.802 E5.63297
G1 X232.423 Y46.999 E5.65677
G1 X232.999 Y47.232 E5.67744
G1 X233.973 Y47.682 E5.71312
G1 X234.605 Y48.018 E5.73693
G1 X235.195 Y48.422 E5.76071
G1 X235.736 Y48.89 E5.7845
G1 X236.226 Y49.419 E5.80849
G1 X236.683 Y49.973 E5.83237
G1 X237.107 Y50.55 E5.85619
G1 X237.463 Y51.17 E5.87997
G1 X237.771 Y51.887 E5.90592
G1 X237.962 Y52.42 E5.92475
G1 X238.165 Y53.106 E5.94855
G1 X238.291 Y53.81 E5.97234
G1 X238.33 Y54.282 E5.98809
G1 X238.389 Y55.554 E6.03044
G1 X238.396 Y55.853 E6.04039
G1 X238.36 Y165.338 E9.68187
G1 X238.32 Y166.052 E9.70566
G1 X238.114 Y167.092 E9.74092
G1 X237.991 Y167.523 E9.75583
G1 X237.757 Y168.199 E9.77962
G1 X237.449 Y168.844 E9.8034
G1 X237.219 Y169.231 E9.81837
G1 X236.865 Y169.781 E9.84012
G1 X236.445 Y170.36 E9.86391
G1 X235.962 Y170.888 E9.88771
G1 X235.264 Y171.481 E9.91818
G1 X234.566 Y171.992 E9.94695
G1 X233.966 Y172.382 E9.97075
G1 X233.326 Y172.702 E9.99455
G1 X232.494 Y172.996 E10.0239
G1 X232.05 Y173.119 E10.03922
G1 X231.351 Y173.271 E10.06301
G1 X230.342 Y173.351 E10.09668
G1 X69.982 Y173.388 E15.43027
G1 X68.94 Y173.303 E15.46505
G1 X68.382 Y173.211 E15.48386
G1 X67.684 Y173.055 E15.50764
G1 X67.007 Y172.823 E15.53145
G1 X66.361 Y172.516 E15.55524
G1 X65.649 Y172.128 E15.58221
G1 X65.041 Y171.751 E15.606
G1 X64.478 Y171.309 E15.62981
G1 X63.786 Y170.595 E15.66288
G1 X63.337 Y170.054 E15.68626
G1 X62.912 Y169.479 E15.71004
G1 X62.553 Y168.86 E15.73384
G1 X62.266 Y168.205 E15.75763
G1 X62.118 Y167.758 E15.77329
G1 X61.879 Y166.938 E15.8017
G1 X61.717 Y166.241 E15.8255
G1 X61.635 Y165.531 E15.84927
G1 X61.623 Y165.147 E15.86205
G1 X61.628 Y54.735 E19.53436
G1 X61.668 Y54.021 E19.55815
G1 X61.787 Y53.315 E19.58196
G1 X62.021 Y52.527 E19.6093
G1 X62.314 Y51.73 E19.63755
G1 X62.598 Y51.073 E19.66135
G1 X62.953 Y50.452 E19.68514
G1 X63.39 Y49.859 E19.70964
M204 S5000
M205 X30 Y30
G0 F1800 X63.698 Y50.114
M204 S500
M205 X20 Y20
G1 F2400 X63.99 Y49.761 E19.72488
G1 X64.461 Y49.253 E19.74792
G1 X64.988 Y48.804 E19.77095
G1 X65.364 Y48.541 E19.78621
G1 X66.061 Y48.092 E19.81379
G1 X66.664 Y47.751 E19.83683
G1 X67.302 Y47.482 E19.85986
G1 X68.151 Y47.249 E19.88914
G1 X68.715 Y47.138 E19.90826
G1 X69.401 Y47.044 E19.93129
G1 X69.875 Y47.025 E19.94706
G1 X230.316 Y47.042 E25.28335
G1 X231.007 Y47.082 E25.30637
G1 X231.689 Y47.201 E25.3294
G1 X232.353 Y47.399 E25.35245
G1 X232.831 Y47.595 E25.36963
G1 X233.805 Y48.045 E25.40532
G1 X234.416 Y48.371 E25.42835
G1 X234.986 Y48.766 E25.45141
G1 X235.506 Y49.223 E25.47444
G1 X235.917 Y49.674 E25.49473
G1 X236.374 Y50.228 E25.51862
G1 X236.784 Y50.787 E25.54168
G1 X237.126 Y51.389 E25.56471
G1 X237.394 Y52.022 E25.58757
G1 X237.585 Y52.555 E25.6064
G1 X237.781 Y53.219 E25.62943
G1 X237.899 Y53.902 E25.65248
G1 X237.931 Y54.301 E25.66579
G1 X237.99 Y55.573 E25.70815
G1 X237.996 Y55.853 E25.71746
G1 X237.96 Y165.338 E29.35895
G1 X237.92 Y166.029 E29.38197
G1 X237.73 Y166.983 E29.41432
G1 X237.607 Y167.414 E29.42923
G1 X237.378 Y168.067 E29.45224
G1 X237.076 Y168.691 E29.4753
G1 X236.882 Y169.014 E29.48783
G1 X236.528 Y169.564 E29.50959
G1 X236.12 Y170.124 E29.53263
G1 X235.651 Y170.633 E29.55565
G1 X235.027 Y171.158 E29.58278
G1 X234.329 Y171.669 E29.61155
G1 X233.748 Y172.045 E29.63457
G1 X233.127 Y172.352 E29.65761
G1 X232.387 Y172.61 E29.68367
G1 X231.943 Y172.733 E29.699
G1 X231.266 Y172.879 E29.72203
G1 X230.342 Y172.951 E29.75286
G1 X69.982 Y172.988 E35.08645
G1 X69.005 Y172.908 E35.11906
G1 X68.447 Y172.816 E35.13787
G1 X67.771 Y172.664 E35.16091
G1 X67.118 Y172.435 E35.18393
G1 X66.552 Y172.165 E35.20478
G1 X65.84 Y171.777 E35.23175
G1 X65.252 Y171.411 E35.25479
G1 X64.71 Y170.979 E35.27784
G1 X64.094 Y170.34 E35.30736
G1 X63.645 Y169.799 E35.33075
G1 X63.234 Y169.241 E35.3538
G1 X62.89 Y168.64 E35.37683
G1 X62.618 Y168.003 E35.39987
G1 X62.502 Y167.646 E35.41235
G1 X62.263 Y166.826 E35.44076
G1 X62.108 Y166.151 E35.46379
G1 X62.023 Y165.147 E35.49731
G1 X62.028 Y54.735 E39.16962
G1 X62.068 Y54.043 E39.19268
G1 X62.187 Y53.361 E39.2157
G1 X62.396 Y52.665 E39.23988
G1 X62.689 Y51.868 E39.26812
G1 X62.966 Y51.233 E39.29116
G1 X63.313 Y50.633 E39.31421
G1 X63.698 Y50.114 E39.33571
M204 S5000
M205 X30 Y30
G0 F1800 X64.006 Y50.369
M204 S500
M205 X20 Y20
G1 F2400 X64.298 Y50.016 E39.35094
G1 X64.754 Y49.526 E39.37321
G1 X65.266 Y49.095 E39.39547
G1 X65.58 Y48.877 E39.40818
G1 X66.277 Y48.428 E39.43576
G1 X66.86 Y48.1 E39.458
G1 X67.478 Y47.844 E39.48025
G1 X68.229 Y47.641 E39.50613
G1 X68.793 Y47.53 E39.52525
G1 X69.456 Y47.441 E39.5475
G1 X69.875 Y47.425 E39.56144
G1 X230.316 Y47.442 E44.89773
G1 X230.983 Y47.482 E44.91996
G1 X231.642 Y47.601 E44.94223
G1 X232.281 Y47.798 E44.96447
G1 X232.664 Y47.958 E44.97827
G1 X233.638 Y48.408 E45.01396
G1 X234.227 Y48.725 E45.03621
G1 X234.775 Y49.109 E45.05846
G1 X235.273 Y49.556 E45.08072
G1 X235.609 Y49.928 E45.09739
G1 X236.066 Y50.482 E45.12128
G1 X236.46 Y51.023 E45.14354
G1 X236.787 Y51.607 E45.1658
G1 X237.018 Y52.157 E45.18564
G1 X237.209 Y52.69 E45.20447
G1 X237.396 Y53.332 E45.22671
G1 X237.531 Y54.32 E45.25988
G1 X237.59 Y55.592 E45.30223
G1 X237.596 Y55.853 E45.31092
G1 X237.56 Y165.338 E48.9524
G1 X237.52 Y166.006 E48.97466
G1 X237.345 Y166.873 E49.00408
G1 X237.222 Y167.304 E49.01899
G1 X237 Y167.935 E49.04123
G1 X236.546 Y168.798 E49.07367
G1 X236.192 Y169.348 E49.09542
G1 X235.797 Y169.888 E49.11767
G1 X235.34 Y170.377 E49.13993
G1 X234.791 Y170.836 E49.16374
G1 X234.093 Y171.347 E49.19251
G1 X233.531 Y171.709 E49.21474
G1 X232.929 Y172.001 E49.237
G1 X232.28 Y172.225 E49.25983
G1 X231.836 Y172.348 E49.27515
G1 X231.182 Y172.488 E49.2974
G1 X230.342 Y172.551 E49.32542
G1 X69.982 Y172.588 E54.65901
G1 X69.07 Y172.513 E54.68945
G1 X68.512 Y172.421 E54.70826
G1 X67.86 Y172.273 E54.73049
G1 X67.229 Y172.049 E54.75277
G1 X66.743 Y171.813 E54.77073
G1 X66.031 Y171.425 E54.7977
G1 X65.464 Y171.071 E54.81994
G1 X64.943 Y170.651 E54.84219
G1 X64.402 Y170.084 E54.86826
G1 X63.953 Y169.543 E54.89164
G1 X63.557 Y169.004 E54.91389
G1 X63.228 Y168.421 E54.93615
G1 X62.886 Y167.534 E54.96777
G1 X62.647 Y166.714 E54.99618
G1 X62.498 Y166.062 E55.01843
G1 X62.423 Y165.147 E55.04896
G1 X62.428 Y54.735 E58.72128
G1 X62.468 Y54.067 E58.74354
G1 X62.587 Y53.409 E58.76578
G1 X62.772 Y52.803 E58.78685
G1 X63.065 Y52.006 E58.81509
G1 X63.333 Y51.393 E58.83734
G1 X63.672 Y50.816 E58.8596
G1 X64.006 Y50.369 E58.87816
M204 S5000
M205 X30 Y30
G0 F1800 X64.314 Y50.624
M204 S500
M205 X20 Y20
G1 F2400 X64.606 Y50.271 E58.8934
G1 X65.047 Y49.8 E58.91486
G1 X65.797 Y49.214 E58.94652
G1 X66.494 Y48.765 E58.97409
G1 X67.056 Y48.45 E58.99552
G1 X67.654 Y48.207 E59.01699
G1 X68.306 Y48.034 E59.03943
G1 X68.87 Y47.923 E59.05854
G1 X69.509 Y47.838 E59.07998
G1 X69.875 Y47.825 E59.09217
G1 X230.316 Y47.842 E64.42845
G1 X230.959 Y47.882 E64.44988
G1 X231.593 Y48.001 E64.47134
G1 X232.496 Y48.321 E64.5032
G1 X233.47 Y48.771 E64.53889
G1 X234.037 Y49.078 E64.56033
G1 X234.562 Y49.452 E64.58177
G1 X235.037 Y49.888 E64.60322
G1 X235.3 Y50.183 E64.61636
G1 X235.757 Y50.737 E64.64025
G1 X236.136 Y51.259 E64.6617
G1 X236.447 Y51.823 E64.68313
G1 X236.641 Y52.292 E64.70001
G1 X236.832 Y52.825 E64.71884
G1 X237.012 Y53.444 E64.74028
G1 X237.131 Y54.338 E64.77028
G1 X237.19 Y55.61 E64.81263
G1 X237.196 Y55.853 E64.82071
G1 X237.16 Y165.338 E68.4622
G1 X237.12 Y165.981 E68.48363
G1 X236.96 Y166.763 E68.51017
G1 X236.837 Y167.194 E68.52508
G1 X236.622 Y167.802 E68.54653
G1 X236.21 Y168.581 E68.57584
G1 X235.856 Y169.131 E68.5976
G1 X235.474 Y169.651 E68.61906
G1 X235.031 Y170.119 E68.64049
G1 X234.555 Y170.513 E68.66104
G1 X233.857 Y171.024 E68.68981
G1 X233.314 Y171.372 E68.71126
G1 X232.732 Y171.65 E68.73272
G1 X232.173 Y171.839 E68.75234
G1 X231.729 Y171.962 E68.76767
G1 X231.099 Y172.096 E68.78909
G1 X230.342 Y172.151 E68.81433
G1 X69.982 Y172.188 E74.14793
G1 X69.135 Y172.119 E74.17619
G1 X68.577 Y172.027 E74.195
G1 X67.949 Y171.883 E74.21643
G1 X67.343 Y171.662 E74.23789
G1 X66.935 Y171.462 E74.253
G1 X66.223 Y171.074 E74.27997
G1 X65.677 Y170.731 E74.30141
G1 X65.178 Y170.323 E74.32285
G1 X64.71 Y169.829 E74.34549
G1 X64.261 Y169.288 E74.36887
G1 X63.88 Y168.767 E74.39034
G1 X63.568 Y168.204 E74.41175
G1 X63.27 Y167.422 E74.43958
G1 X63.031 Y166.602 E74.46799
G1 X62.889 Y165.973 E74.48944
G1 X62.823 Y165.147 E74.517
G1 X62.828 Y54.735 E78.18931
G1 X62.868 Y54.091 E78.21077
G1 X62.987 Y53.458 E78.2322
G1 X63.147 Y52.941 E78.2502
G1 X63.44 Y52.144 E78.27844
G1 X63.7 Y51.554 E78.29988
G1 X64.03 Y51 E78.32133
G1 X64.314 Y50.624 E78.337
M204 S5000
M205 X30 Y30
G1 F2400 E73.337
G0 F1800 X69.516 Y52.378
G0 X69.905 Y53.624
G0 X230.237 Y53.722
G0 X230.255 Y53.624
M204 S500
M205 X20 Y20
;TYPE:WALL-INNER
G1 F2400 E78.337
G1 X230.433 Y53.669 E78.34311
G1 X230.586 Y53.729 E78.34858
G1 X230.749 Y53.818 E78.35475
G1 X230.897 Y53.925 E78.36083
G1 X231.086 Y54.118 E78.36981
G1 X231.177 Y54.243 E78.37496
G1 X231.269 Y54.412 E78.38135
G1 X231.33 Y54.566 E78.38686
G1 X231.375 Y54.744 E78.39297
G1 X231.396 Y54.911 E78.39857
G1 X231.4 Y164.979 E82.05945
G1 X231.387 Y165.179 E82.06611
G1 X231.354 Y165.351 E82.07194
G1 X231.302 Y165.512 E82.07756
G1 X231.222 Y165.681 E82.08378
G1 X231.131 Y165.823 E82.08939
G1 X231.018 Y165.96 E82.0953
G1 X230.893 Y166.077 E82.10099
G1 X230.753 Y166.179 E82.10675
G1 X230.601 Y166.264 E82.11255
G1 X230.439 Y166.327 E82.11833
G1 X230.255 Y166.375 E82.12465
G1 X230.096 Y166.395 E82.12998
G1 X69.912 Y166.397 E87.45772
G1 X69.745 Y166.376 E87.46332
G1 X69.567 Y166.331 E87.46943
G1 X69.412 Y166.27 E87.47497
G1 X69.251 Y166.182 E87.48107
G1 X69.048 Y166.026 E87.48959
G1 X68.92 Y165.889 E87.49582
G1 X68.82 Y165.752 E87.50146
G1 X68.731 Y165.589 E87.50764
G1 X68.67 Y165.434 E87.51318
G1 X68.625 Y165.256 E87.51929
G1 X68.604 Y165.089 E87.52489
G1 X68.6 Y55.021 E91.18576
G1 X68.613 Y54.821 E91.19243
G1 X68.646 Y54.649 E91.19825
G1 X68.698 Y54.488 E91.20388
G1 X68.78 Y54.315 E91.21025
G1 X68.915 Y54.116 E91.21825
G1 X69.038 Y53.985 E91.22422
G1 X69.178 Y53.87 E91.23025
G1 X69.397 Y53.737 E91.23877
G1 X69.56 Y53.673 E91.2446
G1 X69.745 Y53.625 E91.25095
G1 X69.904 Y53.605 E91.25628
G1 X230.088 Y53.603 E96.58402
G1 X230.255 Y53.624 E96.58962
M204 S5000
M205 X30 Y30
G0 F1800 X230.33 Y53.23
M204 S500
M205 X20 Y20
;TYPE:WALL-OUTER
G1 F2400 X230.555 Y53.287 E96.59734
G1 X230.758 Y53.367 E96.6046
G1 X230.965 Y53.48 E96.61244
G1 X231.148 Y53.613 E96.61997
G1 X231.226 Y53.682 E96.62343
G1 X231.39 Y53.857 E96.63141
G1 X231.518 Y54.033 E96.63865
G1 X231.632 Y54.241 E96.64654
G1 X231.712 Y54.444 E96.65379
G1 X231.769 Y54.669 E96.66151
G1 X231.796 Y54.886 E96.66879
G1 X231.8 Y164.99 E100.33086
G1 X231.784 Y165.234 E100.33899
G1 X231.742 Y165.451 E100.34634
G1 X231.675 Y165.659 E100.35361
G1 X231.573 Y165.875 E100.36156
G1 X231.457 Y166.056 E100.36871
G1 X231.31 Y166.234 E100.37639
G1 X231.146 Y166.387 E100.38385
G1 X230.971 Y166.515 E100.39106
G1 X230.769 Y166.628 E100.39876
G1 X230.564 Y166.708 E100.40607
G1 X230.33 Y166.769 E100.41412
G1 X230.121 Y166.795 E100.42112
G1 X69.887 Y166.797 E105.75053
G1 X69.67 Y166.77 E105.7578
G1 X69.445 Y166.713 E105.76552
G1 X69.242 Y166.633 E105.77278
G1 X69.035 Y166.52 E105.78062
G1 X68.852 Y166.387 E105.78815
G1 X68.772 Y166.316 E105.7917
G1 X68.61 Y166.143 E105.79959
G1 X68.481 Y165.966 E105.80687
G1 X68.368 Y165.759 E105.81471
G1 X68.288 Y165.556 E105.82197
G1 X68.231 Y165.331 E105.82969
G1 X68.204 Y165.114 E105.83696
G1 X68.2 Y55.01 E109.49904
G1 X68.216 Y54.766 E109.50717
G1 X68.258 Y54.549 E109.51452
G1 X68.325 Y54.341 E109.52179
G1 X68.427 Y54.125 E109.52974
G1 X68.542 Y53.945 E109.53684
G1 X68.613 Y53.853 E109.54071
G1 X68.765 Y53.691 E109.54809
G1 X68.942 Y53.545 E109.55573
G1 X69.134 Y53.423 E109.56329
G1 X69.228 Y53.374 E109.56682
G1 X69.436 Y53.292 E109.57425
G1 X69.67 Y53.231 E109.5823
G1 X69.879 Y53.205 E109.5893
G1 X230.113 Y53.203 E114.91871
G1 X230.33 Y53.23 E114.92598
M204 S5000
M205 X30 Y30
G0 F1800 X230.523 Y53.279
G0 X230.311 Y54.04
M204 S500
M205 X20 Y20
;TYPE:SKIN
G1 F2400 X230.416 Y54.081 E114.92973
G1 X230.547 Y54.152 E114.93468
G1 X230.639 Y54.219 E114.93847
G1 X230.787 Y54.371 E114.94553
G1 X230.844 Y54.448 E114.94871
G1 X230.915 Y54.579 E114.95367
G1 X230.959 Y54.69 E114.95764
G1 X230.991 Y54.816 E114.96196
G1 X231.006 Y54.936 E114.96599
G1 X231.01 Y164.953 E118.62517
G1 X230.998 Y165.137 E118.6313
G1 X230.975 Y165.256 E118.63533
G1 X230.941 Y165.361 E118.639
G1 X230.876 Y165.499 E118.64407
G1 X230.818 Y165.591 E118.64769
G1 X230.737 Y165.688 E118.65189
G1 X230.64 Y165.778 E118.6563
G1 X230.548 Y165.846 E118.6601
G1 X230.425 Y165.915 E118.66479
G1 X230.328 Y165.952 E118.66824
G1 X230.17 Y165.993 E118.67367
G1 X230.078 Y166.005 E118.67676
G1 X69.937 Y166.007 E124.00307
G1 X69.814 Y165.992 E124.00719
G1 X69.689 Y165.96 E124.01148
G1 X69.575 Y165.915 E124.01556
G1 X69.471 Y165.858 E124.0195
G1 X69.307 Y165.732 E124.02638
G1 X69.226 Y165.644 E124.03036
G1 X69.151 Y165.542 E124.03457
G1 X69.083 Y165.419 E124.03925
G1 X69.041 Y165.312 E124.04307
G1 X69.009 Y165.187 E124.04736
G1 X68.994 Y165.064 E124.05148
G1 X68.99 Y55.047 E127.71066
G1 X69.002 Y54.863 E127.7168
G1 X69.024 Y54.746 E127.72076
G1 X69.061 Y54.635 E127.72465
G1 X69.122 Y54.506 E127.72939
G1 X69.22 Y54.362 E127.73519
G1 X69.303 Y54.273 E127.73923
G1 X69.41 Y54.186 E127.74382
G1 X69.572 Y54.087 E127.75014
G1 X69.677 Y54.046 E127.75388
G1 X69.828 Y54.007 E127.75907
G1 X69.922 Y53.995 E127.76222
G1 X230.063 Y53.993 E133.08853
G1 X230.186 Y54.008 E133.09266
G1 X230.311 Y54.04 E133.09695
M204 S5000
M205 X30 Y30
G0 F1800 X175.008 Y110.005
M204 S500
M205 X20 Y20
G1 F2400 X124.992 Y110.007 E134.76049
G1 X124.992 Y109.995 E134.76089
G1 X175.008 Y109.993 E136.42442
G1 X175.008 Y110.005 E136.42482
M204 S5000
M205 X30 Y30
G0 F1800 X175.409 Y110.405
M204 S500
M205 X20 Y20
G1 F2400 X124.593 Y110.407 E138.11497
G1 X124.591 Y109.595 E138.14198
G1 X175.407 Y109.593 E139.83212
G1 X175.409 Y110.405 E139.85913
M204 S5000
M205 X30 Y30
G0 F1800 X175.809 Y110.805
M204 S500
M205 X20 Y20
G1 F2400 X124.193 Y110.807 E141.57589
G1 X124.191 Y109.195 E141.6295
G1 X175.807 Y109.193 E143.34626
G1 X175.809 Y110.805 E143.39987
M204 S5000
M205 X30 Y30
G0 F1800 X176.21 Y111.205
M204 S500
M205 X20 Y20
G1 F2400 X123.794 Y111.207 E145.14324
G1 X123.79 Y108.795 E145.22346
G1 X176.206 Y108.793 E146.96682
G1 X176.21 Y111.205 E147.04705
M204 S5000
M205 X30 Y30
G0 F1800 X176.61 Y111.605
M204 S500
M205 X20 Y20
G1 F2400 X123.394 Y111.607 E148.81702
G1 X123.39 Y108.395 E148.92385
G1 X176.606 Y108.393 E150.69382
G1 X176.61 Y111.605 E150.80065
M204 S5000
M205 X30 Y30
G0 F1800 X177.01 Y112.005
M204 S500
M205 X20 Y20
G1 F2400 X122.994 Y112.007 E152.59723
G1 X122.99 Y107.995 E152.73067
G1 X177.006 Y107.993 E154.52725
G1 X177.01 Y112.005 E154.66069
M204 S5000
M205 X30 Y30
G0 F1800 X177.41 Y112.405
M204 S500
M205 X20 Y20
G1 F2400 X122.594 Y112.407 E156.48388
G1 X122.59 Y107.595 E156.64393
G1 X177.406 Y107.593 E158.46711
G1 X177.41 Y112.405 E158.62716
M204 S5000
M205 X30 Y30
G0 F1800 X177.81 Y112.805
M204 S500
M205 X20 Y20
G1 F2400 X122.194 Y112.807 E160.47696
G1 X122.19 Y107.195 E160.66361
G1 X177.806 Y107.193 E162.51341
G1 X177.81 Y112.805 E162.70007
M204 S5000
M205 X30 Y30
G0 F1800 X178.21 Y113.205
M204 S500
M205 X20 Y20
G1 F2400 X121.794 Y113.207 E164.57647
